app/public/dtpr-icons/connectivity.svg

<svg width="36" height="36" viewBox="0 0 36 36" fill="none" xmlns="http://www.w3.org/2000/svg">
<path d="M31.8564 8.8453L19 1.42265C18.3812 1.06538 17.6188 1.06538 17 1.42265L4.14359 8.8453C3.52479 9.20257 3.14359 9.86282 3.14359 10.5774V25.4226C3.14359 26.1372 3.52479 26.7974 4.14359 27.1547L17 34.5774C17.6188 34.9346 18.3812 34.9346 19 34.5774L31.8564 27.1547C32.4752 26.7974 32.8564 26.1372 32.8564 25.4226V10.5774C32.8564 9.86282 32.4752 9.20256 31.8564 8.8453Z" fill="black" stroke="black" stroke-width="2"/>
<path fill-rule="evenodd" clip-rule="evenodd" d="M7 15L9 17C13.97 12.03 22.03 12.03 27 17L29 15C22.93 8.93001 13.08 8.93001 7 15ZM15 23L18 26L21 23C19.35 21.34 16.66 21.34 15 23ZM13 21L11 19C14.87 15.14 21.14 15.14 25 19L23 21C20.24 18.24 15.76 18.24 13 21Z" fill="white"/>
</svg>

<svg xmlns="http://www.w3.org/2000/svg" width="36" height="36" fill="none"><path fill="#000" stroke="#000" stroke-width="2" d="M31.856 8.845 19 1.423a2 2 0 0 0-2 0L4.144 8.845a2 2 0 0 0-1 1.732v14.846a2 2 0 0 0 1 1.732L17 34.577a2 2 0 0 0 2 0l12.856-7.422a2 2 0 0 0 1-1.732V10.577a2 2 0 0 0-1-1.732Z"/><path fill="#fff" fill-rule="evenodd" d="m7 15 2 2c4.97-4.97 13.03-4.97 18 0l2-2c-6.07-6.07-15.92-6.07-22 0m8 8 3 3 3-3a4.237 4.237 0 0 0-6 0m-2-2-2-2c3.87-3.86 10.14-3.86 14 0l-2 2a7.074 7.074 0 0 0-10 0" clip-rule="evenodd"/></svg>
